Newaita-dark/mimetypes/64/application-x-keepassx.svg

<svg height="64" viewBox="0 0 64 64" width="64" xmlns="http://www.w3.org/2000/svg" xmlns:xlink="http://www.w3.org/1999/xlink"><linearGradient id="a"><stop offset="0" stop-opacity=".27451"/><stop offset="1" stop-opacity="0"/></linearGradient><linearGradient id="b" gradientUnits="userSpaceOnUse" x1="33.076088" x2="33.076088" xlink:href="#a" y1="56.067872" y2="58.71396000006"/><linearGradient id="c"><stop offset="0" stop-opacity=".313726"/><stop offset=".222222" stop-opacity=".27451"/><stop offset="1" stop-opacity="0"/></linearGradient><radialGradient id="d" cx="450.908936" cy="189.579361" gradientTransform="matrix(.00000035 -.156265 -.281277 -.0000002 98.969138 127.190665)" gradientUnits="userSpaceOnUse" r="21.166656" xlink:href="#c"/><radialGradient id="e" cx="450.908936" cy="189.579361" gradientTransform="matrix(-.00000035 .156265 .281277 .0000002 -36.786098 -15.054958)" gradientUnits="userSpaceOnUse" r="21.166656" xlink:href="#c"/><radialGradient id="f" cx="450.908936" cy="189.579361" gradientTransform="matrix(-.00000035 -.156265 .281277 -.0000002 -36.786098 127.190665)" gradientUnits="userSpaceOnUse" r="21.166656" xlink:href="#c"/><radialGradient id="g" cx="450.908936" cy="189.579361" gradientTransform="matrix(.00000035 .156265 -.281277 .0000002 98.969135 -15.054959)" gradientUnits="userSpaceOnUse" r="21.166656" xlink:href="#c"/><linearGradient id="h" gradientUnits="userSpaceOnUse" x1="31.091534" x2="31.091534" y1="56.06789790428" y2="5.79222438278"><stop offset="0" stop-color="#4dd0e1"/><stop offset="1" stop-color="#80deea"/></linearGradient><linearGradient id="i" gradientTransform="matrix(.0597883 0 0 .218771 30.084847 -32.721821)" gradientUnits="userSpaceOnUse" x1="249.189423" x2="249.189423" xlink:href="#a" y1="233.5" y2="254.666687"/><linearGradient id="j"><stop offset="0" stop-color="#00bcd4"/><stop offset="1" stop-color="#26c6da"/></linearGradient><linearGradient id="k" gradientUnits="userSpaceOnUse" x1="42.33739599987" x2="42.33739599987" xlink:href="#j" y1="56.067868" y2="5.79220799994"/><linearGradient id="l" gradientUnits="userSpaceOnUse" x1="243.416672" x2="248.708344" xlink:href="#j" y1="233.5" y2="-168.666672"/><path d="m15.875 56.066406h30.429688v2.648438h-30.429688zm0 0" fill="url(#b)"/><path d="m46.304688 56.066406h5.292968v-2.644531h-5.292968zm0 0" fill="url(#d)"/><path d="m15.875 56.066406h-5.289062v2.648438h5.289062zm0 0" fill="url(#e)"/><path d="m15.875 56.066406h-5.289062v-2.644531h5.289062zm0 0" fill="url(#f)"/><path d="m46.304688 56.066406h5.292968v2.648438h-5.292968zm0 0" fill="url(#g)"/><path d="m37.085938 5.792969h-23.855469c-1.464844 0-2.644531 1.179687-2.644531 2.644531v44.984375c0 1.464844 1.179687 2.644531 2.644531 2.644531h35.722656c1.464844 0 2.644531-1.179687 2.644531-2.644531v-33.113281zm0 0" fill="url(#h)"/><path d="m37.046875 18.359375h12.566406l1.984375 1.984375v2.648438h-14.550781zm0 0" fill="url(#i)"/><path d="m10.585938 52.394531v1.027344c0 1.464844 1.179687 2.644531 2.644531 2.644531h35.722656c1.464844 0 2.644531-1.179687 2.644531-2.644531v-1.027344c0 1.464844-1.179687 2.644531-2.644531 2.644531h-35.722656c-1.464844 0-2.644531-1.179687-2.644531-2.644531zm0 0" fill-opacity=".235294"/><path d="m13.230469 5.792969c-1.464844 0-2.644531 1.179687-2.644531 2.644531v.992188c0-1.464844 1.179687-2.644532 2.644531-2.644532h23.855469l14.511718 14.515625v-.992187l-14.511718-14.515625zm0 0" fill="#f6f6f6" fill-opacity=".588235"/><path d="m51.597656 20.308594-14.511718-14.515625v11.867187c0 1.464844 1.179687 2.648438 2.644531 2.648438zm0 0" fill="url(#k)"/><path d="m37.085938 17.039062v.621094c0 1.464844 1.179687 2.648438 2.644531 2.648438h11.867187l-.621094-.625h-11.246093c-1.464844 0-2.644531-1.179688-2.644531-2.644532zm0 0" fill-opacity=".235294"/><path d="m37.085938 5.792969v.992187l13.519531 13.523438h.992187zm0 0" fill="#fff" fill-opacity=".392157"/><path d="m37.082031 5.605469c-.101562 0-.183593.085937-.183593.1875v11.867187c0 1.566406 1.265624 2.835938 2.832031 2.835938h11.867187c.078125-.003906.144532-.046875.175782-.117188.027343-.070312.011718-.152344-.042969-.203125l-14.515625-14.515625c-.035156-.035156-.082032-.054687-.132813-.054687zm.191407.640625 13.871093 13.871094h-11.414062c-1.367188 0-2.457031-1.089844-2.457031-2.457032zm0 0" fill="#212121"/><path d="m13.230469 5.605469c-1.566407 0-2.832031 1.265625-2.832031 2.832031v44.984375c0 1.566406 1.265624 2.832031 2.832031 2.832031h35.722656c1.566406 0 2.832031-1.265625 2.832031-2.832031v-33.113281c0-.050782-.019531-.097656-.054687-.132813l-14.515625-14.515625c-.035156-.035156-.082032-.054687-.128906-.054687zm0 .375h23.777343l14.402344 14.402343v33.039063c0 1.363281-1.09375 2.457031-2.457031 2.457031h-35.722656c-1.367188 0-2.457031-1.09375-2.457031-2.457031v-44.984375c0-1.363281 1.089843-2.457031 2.457031-2.457031zm0 0" fill="#212121"/><path d="m308.564284-9.925834c-22.779075-22.779074-54.494796-27.809844-71.086962-11.217678-13.748687 13.748687-12.655041 37.90263 1.124893 58.74439l-34.809176 34.809176-3.718395-3.749642c-2.09355-2.062303-5.405734-2.062303-7.499284 0l-7.468037 7.499284c-2.09355 2.062303-2.09355 5.405733 0 7.468036l3.718395 3.749642-7.468037 7.468037c-2.062303 2.09355-2.062303 5.405734 0 7.499284l14.967321 14.967321c2.062303 2.062303 5.405734 2.062303 7.468037 0l33.684283-33.684284 3.749642 3.749642c2.062303 2.062303 5.405734 2.062303 7.468037 0l7.499284-7.499283c2.062303-2.062304 2.062303-5.405734 0-7.468037l-3.749642-3.749642 8.592929-8.59293c20.873007 13.779934 45.02695 14.87358 58.775637 1.124893 16.560919-16.592166 11.561396-48.307887-11.248925-71.118209zm-1.843574 28.059821c7.249307 7.280555 7.249307 18.935692 0 26.216246-7.280555 7.249308-18.966939 7.249308-26.216247 0-7.249308-7.280554-7.249308-18.935691 0-26.216246 7.249308-7.249308 18.935692-7.249308 26.216247 0zm0 0" fill="url(#l)" stroke="#212121" stroke-linecap="round" stroke-linejoin="round" stroke-width="3" transform="matrix(.125012 0 0 .125012 0 26.877566)"/></svg>

<?xml version="1.0" encoding="UTF-8"?>
<svg xmlns="http://www.w3.org/2000/svg" xmlns:xlink="http://www.w3.org/1999/xlink" width="64px" height="64px" viewBox="0 0 64 64" version="1.1">
<defs>
<linearGradient id="linear0" gradientUnits="userSpaceOnUse" x1="254" y1="233.5" x2="254" y2="254.666672" gradientTransform="matrix(0.125012,0,0,0.125012,1.32304,26.87757)">
<stop offset="0" style="stop-color:rgb(0%,0%,0%);stop-opacity:0.27451;"/>
<stop offset="1" style="stop-color:rgb(0%,0%,0%);stop-opacity:0;"/>
</linearGradient>
<radialGradient id="radial0" gradientUnits="userSpaceOnUse" cx="450.908936" cy="189.579361" fx="450.908936" fy="189.579361" r="21.166656" gradientTransform="matrix(0.000000348341,-0.156265,-0.281277,-0.000000203077,98.969138,127.190665)">
<stop offset="0" style="stop-color:rgb(0%,0%,0%);stop-opacity:0.313726;"/>
<stop offset="0.222222" style="stop-color:rgb(0%,0%,0%);stop-opacity:0.27451;"/>
<stop offset="1" style="stop-color:rgb(0%,0%,0%);stop-opacity:0;"/>
</radialGradient>
<radialGradient id="radial1" gradientUnits="userSpaceOnUse" cx="450.908936" cy="189.579361" fx="450.908936" fy="189.579361" r="21.166656" gradientTransform="matrix(-0.000000348341,0.156265,0.281277,0.000000203077,-36.786098,-15.054958)">
<stop offset="0" style="stop-color:rgb(0%,0%,0%);stop-opacity:0.313726;"/>
<stop offset="0.222222" style="stop-color:rgb(0%,0%,0%);stop-opacity:0.27451;"/>
<stop offset="1" style="stop-color:rgb(0%,0%,0%);stop-opacity:0;"/>
</radialGradient>
<radialGradient id="radial2" gradientUnits="userSpaceOnUse" cx="450.908936" cy="189.579361" fx="450.908936" fy="189.579361" r="21.166656" gradientTransform="matrix(-0.000000348341,-0.156265,0.281277,-0.000000203077,-36.786098,127.190665)">
<stop offset="0" style="stop-color:rgb(0%,0%,0%);stop-opacity:0.313726;"/>
<stop offset="0.222222" style="stop-color:rgb(0%,0%,0%);stop-opacity:0.27451;"/>
<stop offset="1" style="stop-color:rgb(0%,0%,0%);stop-opacity:0;"/>
</radialGradient>
<radialGradient id="radial3" gradientUnits="userSpaceOnUse" cx="450.908936" cy="189.579361" fx="450.908936" fy="189.579361" r="21.166656" gradientTransform="matrix(0.000000348341,0.156265,-0.281277,0.000000203077,98.969135,-15.054959)">
<stop offset="0" style="stop-color:rgb(0%,0%,0%);stop-opacity:0.313726;"/>
<stop offset="0.222222" style="stop-color:rgb(0%,0%,0%);stop-opacity:0.27451;"/>
<stop offset="1" style="stop-color:rgb(0%,0%,0%);stop-opacity:0;"/>
</radialGradient>
<linearGradient id="linear1" gradientUnits="userSpaceOnUse" x1="940" y1="1695.118164" x2="940" y2="175.118118" gradientTransform="matrix(0.0330761,0,0,0.0330761,0,0)">
<stop offset="0" style="stop-color:rgb(30.19608%,81.568629%,88.235295%);stop-opacity:1;"/>
<stop offset="1" style="stop-color:rgb(50.196081%,87.058824%,91.764706%);stop-opacity:1;"/>
</linearGradient>
<linearGradient id="linear2" gradientUnits="userSpaceOnUse" x1="249.189423" y1="233.5" x2="249.189423" y2="254.666687" gradientTransform="matrix(0.0597883,0,0,0.218771,30.084847,-32.721821)">
<stop offset="0" style="stop-color:rgb(0%,0%,0%);stop-opacity:0.27451;"/>
<stop offset="1" style="stop-color:rgb(0%,0%,0%);stop-opacity:0;"/>
</linearGradient>
<linearGradient id="linear3" gradientUnits="userSpaceOnUse" x1="338.666656" y1="233.5" x2="338.666656" y2="-168.666672" gradientTransform="matrix(0.125012,0,0,0.125012,0,26.877566)">
<stop offset="0" style="stop-color:rgb(0%,73.725492%,83.137256%);stop-opacity:1;"/>
<stop offset="1" style="stop-color:rgb(14.901961%,77.64706%,85.490197%);stop-opacity:1;"/>
</linearGradient>
<linearGradient id="linear4" gradientUnits="userSpaceOnUse" x1="243.416672" y1="233.5" x2="248.708344" y2="-168.666672" >
<stop offset="0" style="stop-color:rgb(0%,73.725492%,83.137256%);stop-opacity:1;"/>
<stop offset="1" style="stop-color:rgb(14.901961%,77.64706%,85.490197%);stop-opacity:1;"/>
</linearGradient>
</defs>
<g id="surface1">
<path style=" stroke:none;fill-rule:nonzero;fill:url(#linear0);" d="M 15.875 56.066406 L 46.304688 56.066406 L 46.304688 58.714844 L 15.875 58.714844 Z M 15.875 56.066406 "/>
<path style=" stroke:none;fill-rule:nonzero;fill:url(#radial0);" d="M 46.304688 56.066406 L 51.597656 56.066406 L 51.597656 53.421875 L 46.304688 53.421875 Z M 46.304688 56.066406 "/>
<path style=" stroke:none;fill-rule:nonzero;fill:url(#radial1);" d="M 15.875 56.066406 L 10.585938 56.066406 L 10.585938 58.714844 L 15.875 58.714844 Z M 15.875 56.066406 "/>
<path style=" stroke:none;fill-rule:nonzero;fill:url(#radial2);" d="M 15.875 56.066406 L 10.585938 56.066406 L 10.585938 53.421875 L 15.875 53.421875 Z M 15.875 56.066406 "/>
<path style=" stroke:none;fill-rule:nonzero;fill:url(#radial3);" d="M 46.304688 56.066406 L 51.597656 56.066406 L 51.597656 58.714844 L 46.304688 58.714844 Z M 46.304688 56.066406 "/>
<path style=" stroke:none;fill-rule:nonzero;fill:url(#linear1);" d="M 37.085938 5.792969 L 13.230469 5.792969 C 11.765625 5.792969 10.585938 6.972656 10.585938 8.4375 L 10.585938 53.421875 C 10.585938 54.886719 11.765625 56.066406 13.230469 56.066406 L 48.953125 56.066406 C 50.417969 56.066406 51.597656 54.886719 51.597656 53.421875 L 51.597656 20.308594 Z M 37.085938 5.792969 "/>
<path style=" stroke:none;fill-rule:nonzero;fill:url(#linear2);" d="M 37.046875 18.359375 L 49.613281 18.359375 L 51.597656 20.34375 L 51.597656 22.992188 L 37.046875 22.992188 Z M 37.046875 18.359375 "/>
<path style=" stroke:none;fill-rule:nonzero;fill:rgb(0%,0%,0%);fill-opacity:0.235294;" d="M 10.585938 52.394531 L 10.585938 53.421875 C 10.585938 54.886719 11.765625 56.066406 13.230469 56.066406 L 48.953125 56.066406 C 50.417969 56.066406 51.597656 54.886719 51.597656 53.421875 L 51.597656 52.394531 C 51.597656 53.859375 50.417969 55.039062 48.953125 55.039062 L 13.230469 55.039062 C 11.765625 55.039062 10.585938 53.859375 10.585938 52.394531 Z M 10.585938 52.394531 "/>
<path style=" stroke:none;fill-rule:nonzero;fill:rgb(96.470588%,96.470588%,96.470588%);fill-opacity:0.588235;" d="M 13.230469 5.792969 C 11.765625 5.792969 10.585938 6.972656 10.585938 8.4375 L 10.585938 9.429688 C 10.585938 7.964844 11.765625 6.785156 13.230469 6.785156 L 37.085938 6.785156 L 51.597656 21.300781 L 51.597656 20.308594 L 37.085938 5.792969 Z M 13.230469 5.792969 "/>
<path style=" stroke:none;fill-rule:nonzero;fill:url(#linear3);" d="M 51.597656 20.308594 L 37.085938 5.792969 L 37.085938 17.660156 C 37.085938 19.125 38.265625 20.308594 39.730469 20.308594 Z M 51.597656 20.308594 "/>
<path style=" stroke:none;fill-rule:nonzero;fill:rgb(0%,0%,0%);fill-opacity:0.235294;" d="M 37.085938 17.039062 L 37.085938 17.660156 C 37.085938 19.125 38.265625 20.308594 39.730469 20.308594 L 51.597656 20.308594 L 50.976562 19.683594 L 39.730469 19.683594 C 38.265625 19.683594 37.085938 18.503906 37.085938 17.039062 Z M 37.085938 17.039062 "/>
<path style=" stroke:none;fill-rule:nonzero;fill:rgb(100%,100%,100%);fill-opacity:0.392157;" d="M 37.085938 5.792969 L 37.085938 6.785156 L 50.605469 20.308594 L 51.597656 20.308594 Z M 37.085938 5.792969 "/>
<path style=" stroke:none;fill-rule:nonzero;fill:rgb(12.941177%,12.941177%,12.941177%);fill-opacity:1;" d="M 37.082031 5.605469 C 36.980469 5.605469 36.898438 5.691406 36.898438 5.792969 L 36.898438 17.660156 C 36.898438 19.226562 38.164062 20.496094 39.730469 20.496094 L 51.597656 20.496094 C 51.675781 20.492188 51.742188 20.449219 51.773438 20.378906 C 51.800781 20.308594 51.785156 20.226562 51.730469 20.175781 L 37.214844 5.660156 C 37.179688 5.625 37.132812 5.605469 37.082031 5.605469 Z M 37.273438 6.246094 L 51.144531 20.117188 L 39.730469 20.117188 C 38.363281 20.117188 37.273438 19.027344 37.273438 17.660156 Z M 37.273438 6.246094 "/>
<path style=" stroke:none;fill-rule:nonzero;fill:rgb(12.941177%,12.941177%,12.941177%);fill-opacity:1;" d="M 13.230469 5.605469 C 11.664062 5.605469 10.398438 6.871094 10.398438 8.4375 L 10.398438 53.421875 C 10.398438 54.988281 11.664062 56.253906 13.230469 56.253906 L 48.953125 56.253906 C 50.519531 56.253906 51.785156 54.988281 51.785156 53.421875 L 51.785156 20.308594 C 51.785156 20.257812 51.765625 20.210938 51.730469 20.175781 L 37.214844 5.660156 C 37.179688 5.625 37.132812 5.605469 37.085938 5.605469 Z M 13.230469 5.980469 L 37.007812 5.980469 L 51.410156 20.382812 L 51.410156 53.421875 C 51.410156 54.785156 50.316406 55.878906 48.953125 55.878906 L 13.230469 55.878906 C 11.863281 55.878906 10.773438 54.785156 10.773438 53.421875 L 10.773438 8.4375 C 10.773438 7.074219 11.863281 5.980469 13.230469 5.980469 Z M 13.230469 5.980469 "/>
<path style="fill-rule:nonzero;fill:url(#linear4);stroke-width:3;stroke-linecap:round;stroke-linejoin:round;stroke:rgb(12.941177%,12.941177%,12.941177%);stroke-opacity:1;stroke-miterlimit:4;" d="M 308.564284 -9.925834 C 285.785209 -32.704908 254.069488 -37.735678 237.477322 -21.143512 C 223.728635 -7.394825 224.822281 16.759118 238.602215 37.600878 L 203.793039 72.410054 L 200.074644 68.660412 C 197.981094 66.598109 194.66891 66.598109 192.57536 68.660412 L 185.107323 76.159696 C 183.013773 78.221999 183.013773 81.565429 185.107323 83.627732 L 188.825718 87.377374 L 181.357681 94.845411 C 179.295378 96.938961 179.295378 100.251145 181.357681 102.344695 L 196.325002 117.312016 C 198.387305 119.374319 201.730736 119.374319 203.793039 117.312016 L 237.477322 83.627732 L 241.226964 87.377374 C 243.289267 89.439677 246.632698 89.439677 248.695001 87.377374 L 256.194285 79.878091 C 258.256588 77.815787 258.256588 74.472357 256.194285 72.410054 L 252.444643 68.660412 L 261.037572 60.067482 C 281.910579 73.847416 306.064522 74.941062 319.813209 61.192375 C 336.374128 44.600209 331.374605 12.884488 308.564284 -9.925834 Z M 306.72071 18.133987 C 313.970017 25.414542 313.970017 37.069679 306.72071 44.350233 C 299.440155 51.599541 287.753771 51.599541 280.504463 44.350233 C 273.255155 37.069679 273.255155 25.414542 280.504463 18.133987 C 287.753771 10.884679 299.440155 10.884679 306.72071 18.133987 Z M 306.72071 18.133987 " transform="matrix(0.125012,0,0,0.125012,0,26.877566)"/>
</g>
</svg>
